X: 947
T: Gün Doğmayacak...
C: Musa Süreyya Bey
O: Turkey
F: http://compmusic.upf.edu/node/140
N: kurdilihicazkar--sarki--aksak--gun_dogmayacak--musa_sureyya_bey
N: makam= kurdilihicazkar
N: form= sarki
N: usul= aksak = 9/8
M: 9/8
L: 1/16
K: C _B _e _A 
Q: 1/4=120
%%MIDI tuningsystem comma53
B4 e4 fgaf g4 c'2 | c'b baag gffe ede3/2d/ ecB2  | 
w:  ARANAĞME  |   | 
B4 e4 fgaf gfed c2 | B3/2c/ dedc cBBA AGG4z2  | 
w:   |   | 
B4 e4 fgaf g4 c'2 | c'b baag gffe ede3/2d/ ecB2  | 
w:  ARANAĞME  |   | 
B4 e4 fgaf gfed c2 | B3/2c/ dedc cBBA AGG4z2  | 
w:   |   | 
z4 f3g g4 a2g2 f2 | ed c2g2 {b}agg8z2  | \
w:  Gün  *  doğ  |  *  *  *  ma *  ya *  cak   | 
g3/2f/g=a f2e2 d2c2 d2e2 f2 | 
w:  bel  | 
g2 =agfe edd8-d2  | c2d8-d2 gfed c_1/4B | \
w:  *  *  *  li  *  bu  *  aş  |  kın   | 
c4b2 =aggf2egf e2ed  | 
w:  *  ge ce *  sin  | 
d4 z2ga gf_1/4ef g3/2=a/gf ef | g4f3gg4a2 g2f2  | 
w:  den   SAZ  |  *  Hic *  rân   | 
edc2 d2_1/4e2 g2f2 _e2d4 | d3cc2 cBc2 dcc4z2  | \
w:  *  *  *  o ku nur   |  genç *  li ği *  min   | 
d3c d2e2 f2g2 a2gf ed | 
w:  dert  | 
dc2Bdc cBc2 BAcB A2AG  | G6ga gf=ef g3/2=a/gf _1/4ef | 
w:  *  *  *  li  *  se *  sin  |  den   SAZ  | 
g4f3gg4a2 g2f2  | edc2 d2_1/4e2 g2f2 _e2d4 | \
w:  *  Hic *  rân   |  *  *  *  o ku nur   | 
d3cc2 cBc2 dcc4z2  | 
w:  genç *  li ği *  min   | 
d3c d2e2 f2g2 a2gf ed | dc2Bdc cBc2 BAcB A2AG  | 
w:  dert  |  *  *  *  li  *  se *  sin  | 
G6b2 =a2c'2 b4 ac' | b4=a3bb8c'2  | d'4 d'2c'2 c'bb=a b4 z2 | 
w:  den   SAZ  |  *  Kal *  bim   |  *  a cı yor   | 
=a2 b6b3aa4ag  | =a3g ac'ba aggf g6 | \
w:  gün  |  *  *  le *  ri  *  sen  | 
f2 g6g3/2f/ g=af2 _1/4e2d2  | 
w:  siz   | 
d3c b2=ag gf_1/4e2 gfe2 ed | d6 gagf _1/4efg3/2=a/ gfef  | 
w:  *  *  ya şa *  dık  |  ça   SAZ  | 
g4 f3g g4 a2g2 f2 | ed c2d2 _1/4e2g2 f2_e2 d4  | \
w:  *  Hic *  rân   |  *  *  *  o ku nur   | 
d3c c2cB c2dc c4 z2 | 
w:  genç *  li ği *  min   | 
d3cd2 e2f2 g2a2 gfed  | dc2B dccB c2BA cBA2 AG | 
w:  dert  |  *  *  *  li  *  se *  sin  | 
G6 gagf =efg3/2=a/ gf_1/4ef  | g4 f3g g4 a2g2 f2 | \
w:  den   SAZ  |  *  Hic *  rân   | 
ed c2d2 _1/4e2g2 f2_e2 d4  | 
w:  *  *  *  o ku nur   | 
d3c c2cB c2dc c4 z2 | d3cd2 e2f2 g2a2 gfed  | 
w:  genç *  li ği *  min   |  dert  | 
dc2B dccB c2BA cBA2 AG | G3edc cBBA AGG6  | 
w:  *  *  *  li  *  se *  sin  |  den   SAZ KARAR  | 
|


